assets/ao-chan.svg

<svg width="100" height="79" viewBox="0 0 100 79" fill="none" xmlns="http://www.w3.org/2000/svg">
<g id="ao-chan">
<path id="Rectangle 74" d="M15 73.6019C6.71572 73.6019 -2.93554e-07 66.8861 -6.55671e-07 58.6019L-2.86755e-06 8.00006C-3.06068e-06 3.58178 3.58172 5.32492e-05 8 5.30561e-05L85.8681 4.96523e-05C93.0478 4.93385e-05 98.8681 5.82035 98.8681 13L98.8681 65.6019C98.8681 70.0201 95.2864 73.6019 90.8681 73.6019L15 73.6019Z" fill="#594D70"/>
<path id="Rectangle 73" d="M7.64941 70.3062C4.3357 70.3062 1.64941 67.6199 1.64941 64.3062L1.64941 9.64779C1.64941 5.22951 5.23113 1.6478 9.64941 1.6478L90.7712 1.64779C94.6372 1.64779 97.7712 4.7818 97.7712 8.64779L97.7712 70.3062L7.64941 70.3062Z" fill="#C6C6C6"/>
<rect id="Rectangle 72" x="3.8457" y="74.1511" width="69.5093" height="96.1546" rx="6" transform="rotate(-90 3.8457 74.1511)" fill="#594D70"/>
<path id="Rectangle 76" d="M67.0107 1.64789L67.0107 8.61883e-05L90.9039 8.51439e-05C91.3589 8.5124e-05 91.7278 0.368958 91.7278 0.823986V0.823986C91.7278 1.27901 91.3589 1.64789 90.9039 1.64789L67.0107 1.64789Z" fill="#F3A360"/>
<circle id="Ellipse 13" cx="51.0823" cy="39.5473" r="28.6604" transform="rotate(-90 51.0823 39.5473)" fill="#392E47" stroke="#8F7BAB" stroke-width="2"/>
<path id="Ellipse 14" d="M52.1801 16.9288C64.0209 16.9288 73.7001 27.01 73.7001 39.5473C73.7001 52.0845 64.0209 62.1658 52.1801 62.1658C40.3393 62.1658 30.6602 52.0845 30.6602 39.5473C30.6602 27.01 40.3393 16.9288 52.1801 16.9288Z" stroke="#8F7BAB" stroke-width="2"/>
<g id="Group 29" filter="url(#filter0_d)">
<path id="Union" fill-rule="evenodd" clip-rule="evenodd" d="M51.18 49.2645L51.18 51.1578C45.2449 50.7837 40.5469 45.8515 40.5469 39.822C40.5469 33.7925 45.2449 28.8603 51.18 28.4863L51.18 29.8302C47.0155 30.4289 44.0395 34.7235 44.0395 39.5474C44.0395 44.3713 47.0155 48.6659 51.18 49.2645ZM53.18 29.8302L53.18 28.5342C58.8532 29.1677 63.2639 33.9798 63.2639 39.822C63.2639 45.6643 58.8532 50.4763 53.18 51.1098L53.18 49.2645C57.3446 48.6659 60.3205 44.3713 60.3205 39.5474C60.3205 34.7235 57.3446 30.4289 53.18 29.8302ZM38.5469 39.822C38.5469 47.1997 44.5277 53.1805 51.9054 53.1805C59.2831 53.1805 65.2639 47.1997 65.2639 39.822C65.2639 32.4443 59.2831 26.4635 51.9054 26.4635C44.5277 26.4635 38.5469 32.4443 38.5469 39.822ZM52.18 47.3357C50.65 47.3357 49.1824 46.5886 48.0658 45.3181C49.4229 45.0702 50.6551 44.5644 51.6509 43.8589C53.0994 42.8329 54.117 41.323 54.117 39.5474C54.117 37.7718 53.0994 36.2618 51.6509 35.2359C50.6551 34.5304 49.4229 34.0246 48.0658 33.7767C49.1824 32.5062 50.65 31.7591 52.18 31.7591C55.3873 31.7591 58.3205 35.042 58.3205 39.5474C58.3205 44.0528 55.3873 47.3357 52.18 47.3357ZM50.4949 42.2269C49.5726 42.8802 48.3099 43.3429 46.868 43.4611C46.3456 42.3304 46.0395 41.0027 46.0395 39.5474C46.0395 38.0921 46.3456 36.7644 46.868 35.6337C48.3099 35.7519 49.5726 36.2146 50.4949 36.8679C51.5723 37.6311 52.117 38.5928 52.117 39.5474C52.117 40.5019 51.5723 41.4637 50.4949 42.2269ZM49.9821 39.5474C49.9821 38.9407 49.4902 38.4489 48.8835 38.4489C48.2768 38.4489 47.785 38.9407 47.785 39.5474C47.785 40.1541 48.2768 40.6459 48.8835 40.6459C49.4902 40.6459 49.9821 40.1541 49.9821 39.5474Z" fill="#AD5472"/>
</g>
<g id="Vector" filter="url(#filter1_d)">
<path d="M74.1517 71.9541L6.5918 71.9541L6.59179 6.59129L74.1517 6.59128M19.2249 7.14055L19.2249 71.4048M12.7723 56.5746L25.3854 56.5746C32.6004 56.5746 38.4493 48.8283 38.4493 39.2727C38.4493 29.7171 32.6004 21.9708 25.3854 21.9708L12.8707 21.9708M12.7723 56.5746L6.5918 56.5746M12.7723 56.5746C12.5099 52.274 12.6967 46.7208 12.7192 39.9302M12.7723 56.5746C13.4615 67.8672 17.2482 70.5229 35.2413 64.2642C52.8178 48.6101 52.2685 50.2579 74.7885 64.2642M12.8707 21.9708L6.59179 21.9708M12.8707 21.9708C12.4688 26.4323 12.6943 32.4256 12.7192 39.9302M12.8707 21.9708C13.7875 11.7948 17.9687 9.58807 35.2413 15.5961C52.8178 31.2502 52.2685 29.6024 74.7885 15.5961M12.7213 38.665C12.7213 39.0914 12.7205 39.5131 12.7192 39.9302M12.7192 39.9302C12.7205 40.3472 12.7213 40.7689 12.7213 41.1953" stroke="#8F7BAB" stroke-width="2" shape-rendering="auto"/>
</g>
<rect id="Rectangle 75" x="73.6025" y="73.6018" width="68.6584" height="24.717" rx="3" transform="rotate(-90 73.6025 73.6018)" fill="#F3A360"/>
<rect id="Rectangle 77" x="75.7988" y="28.0126" width="20.8722" height="20.3229" transform="rotate(-90 75.7988 28.0126)" fill="#583F7C"/>
<circle id="Ellipse 20" cx="90.9039" cy="28.2872" r="5.86584" transform="rotate(-90 90.9039 28.2872)" fill="#CA620B" stroke="#543838" stroke-width="2"/>
<g id="Group 28">
<line id="Line 5" x1="81.2646" y1="66.8201" x2="81.2646" y2="37.7656" stroke="#6A6182" stroke-width="5" stroke-linecap="round"/>
<line id="Line 6" x1="89.502" y1="66.8201" x2="89.502" y2="54.7928" stroke="#6A6182" stroke-width="5" stroke-linecap="round"/>
</g>
</g>
<defs>
<filter id="filter0_d" x="34.5469" y="26.4635" width="34.717" height="34.717" filterUnits="userSpaceOnUse" color-interpolation-filters="sRGB">
<feFlood flood-opacity="0" result="BackgroundImageFix"/>
<feColorMatrix in="SourceAlpha" type="matrix" values="0 0 0 0 0 0 0 0 0 0 0 0 0 0 0 0 0 0 127 0" result="hardAlpha"/>
<feOffset dy="4"/>
<feGaussianBlur stdDeviation="2"/>
<feComposite in2="hardAlpha" operator="out"/>
<feColorMatrix type="matrix" values="0 0 0 0 0 0 0 0 0 0 0 0 0 0 0 0 0 0 0.25 0"/>
<feBlend mode="normal" in2="BackgroundImageFix" result="effect1_dropShadow"/>
<feBlend mode="normal" in="SourceGraphic" in2="effect1_dropShadow" result="shape"/>
</filter>
<filter id="filter1_d" x="1.5918" y="3.59131" width="77.7248" height="75.3628" filterUnits="userSpaceOnUse" color-interpolation-filters="sRGB">
<feFlood flood-opacity="0" result="BackgroundImageFix"/>
<feColorMatrix in="SourceAlpha" type="matrix" values="0 0 0 0 0 0 0 0 0 0 0 0 0 0 0 0 0 0 127 0" result="hardAlpha"/>
<feOffset dy="2"/>
<feGaussianBlur stdDeviation="2"/>
<feComposite in2="hardAlpha" operator="out"/>
<feColorMatrix type="matrix" values="0 0 0 0 0 0 0 0 0 0 0 0 0 0 0 0 0 0 0.25 0"/>
<feBlend mode="normal" in2="BackgroundImageFix" result="effect1_dropShadow"/>
<feBlend mode="normal" in="SourceGraphic" in2="effect1_dropShadow" result="shape"/>
</filter>
</defs>
</svg>

<svg xmlns="http://www.w3.org/2000/svg" width="100" height="79" fill="none">
  <path fill="#594D70" d="M15 73.603c-8.284 0-15-6.716-15-15V8.151a8 8 0 018-8h77.868c7.18 0 13 5.82 13 13v52.452a8 8 0 01-8 8H15z"/>
  <path fill="#C6C6C6" d="M7.65 70.314a6 6 0 01-6-6V9.795a8 8 0 018-8h81.12a7 7 0 017 7v61.519H7.65z"/>
  <rect width="69.368" height="96.155" x="3.846" y="74.151" fill="#594D70" rx="6" transform="rotate(-90 3.846 74.151)"/>
  <path fill="#F3A360" d="M67.01 1.796V.15h23.896a.822.822 0 010 1.644H67.01z"/>
  <path fill="#392E47" stroke="#8F7BAB" stroke-width="2" d="M51.082 11.018c15.831 0 28.66 12.806 28.66 28.6 0 15.793-12.829 28.6-28.66 28.6-15.83 0-28.66-12.807-28.66-28.6 0-15.794 12.83-28.6 28.66-28.6z"/>
  <path stroke="#8F7BAB" stroke-width="2" d="M52.18 17.047c11.843 0 21.52 10.062 21.52 22.57 0 12.51-9.677 22.571-21.52 22.571s-21.52-10.062-21.52-22.57c0-12.509 9.677-22.57 21.52-22.57z"/>
  <g filter="url(#ao-chan__filter0_d)">
    <path stroke="#8F7BAB" stroke-width="2" d="M74.152 71.959H6.592V6.729h67.56m-54.927.548V71.41m-6.453-14.8h12.613c7.215 0 13.064-7.73 13.064-17.266 0-9.536-5.849-17.267-13.064-17.267H12.871m-.099 34.533h-6.18m6.18 0c-.262-4.291-.075-9.833-.053-16.61m.053 16.61c.69 11.27 4.476 13.92 22.47 7.674 17.576-15.622 17.027-13.977 39.547 0M12.87 22.077H6.59m6.28 0c-.402 4.452-.177 10.434-.152 17.923m.152-17.923c.916-10.155 5.098-12.357 22.37-6.362 17.577 15.623 17.028 13.978 39.547 0M12.721 38.737c0 .426 0 .847-.002 1.263m0 0c.002.416.002.837.002 1.262" shape-rendering="auto"/>
  </g>
  <rect width="68.519" height="24.717" x="73.603" y="73.603" fill="#F3A360" rx="3" transform="rotate(-90 73.603 73.603)"/>
  <path fill="#583F7C" d="M75.8 28.106V7.276h20.322v20.83z"/>
  <path fill="#CA620B" stroke="#543838" stroke-width="2" d="M90.904 22.529c3.242 0 5.866 2.622 5.866 5.852 0 3.23-2.624 5.852-5.866 5.852-3.242 0-5.866-2.622-5.866-5.852 0-3.23 2.624-5.852 5.866-5.852z"/>
  <path stroke="#6A6182" stroke-linecap="round" stroke-width="5" d="M81.265 66.83V37.845m8.237 28.985V54.837"/>
  <path fill="#AD5472" d="M49.982 39.618c0-.606-.492-1.096-1.099-1.096a1.097 1.097 0 101.1 1.096z"/>
  <path fill="#AD5472" fill-rule="evenodd" d="M38.547 39.892c0 7.363 5.98 13.331 13.358 13.331s13.359-5.968 13.359-13.331c0-7.363-5.98-13.331-13.359-13.331-7.377 0-13.358 5.968-13.358 13.331zm12.633 9.423v1.89c-5.935-.374-10.633-5.296-10.633-11.313s4.698-10.94 10.633-11.313v1.341c-4.164.598-7.14 4.884-7.14 9.698s2.976 9.1 7.14 9.697zm2-19.394v-1.294c5.673.632 10.084 5.435 10.084 11.265 0 5.83-4.41 10.633-10.084 11.265v-1.842c4.165-.597 7.14-4.883 7.14-9.697 0-4.814-2.975-9.1-7.14-9.698zm-1 17.47c-1.53 0-2.998-.746-4.114-2.014 1.357-.248 2.59-.752 3.585-1.456 1.448-1.024 2.466-2.531 2.466-4.303 0-1.772-1.018-3.279-2.466-4.303-.996-.704-2.228-1.209-3.585-1.456 1.116-1.268 2.584-2.014 4.114-2.014 3.207 0 6.14 3.277 6.14 7.773 0 4.496-2.933 7.772-6.14 7.772zm-1.685-5.1c-.922.653-2.185 1.115-3.627 1.233-.522-1.129-.829-2.454-.829-3.906s.307-2.777.829-3.906c1.442.118 2.705.58 3.627 1.232 1.077.761 1.622 1.721 1.622 2.674 0 .953-.545 1.912-1.622 2.674z" clip-rule="evenodd"/>
  <defs>
    <filter id="ao-chan__filter0_d" width="77.724" height="75.23" x="1.592" y="3.729" color-interpolation-filters="sRGB" filterUnits="userSpaceOnUse">
      <feFlood flood-opacity="0" result="BackgroundImageFix"/>
      <feColorMatrix in="SourceAlpha" result="hardAlpha" values="0 0 0 0 0 0 0 0 0 0 0 0 0 0 0 0 0 0 127 0"/>
      <feOffset dy="2"/>
      <feGaussianBlur stdDeviation="2"/>
      <feComposite in2="hardAlpha" operator="out"/>
      <feColorMatrix values="0 0 0 0 0 0 0 0 0 0 0 0 0 0 0 0 0 0 0.25 0"/>
      <feBlend in2="BackgroundImageFix" result="effect1_dropShadow"/>
      <feBlend in="SourceGraphic" in2="effect1_dropShadow" result="shape"/>
    </filter>
  </defs>
</svg>
